16x16/apps/cairo-dock.svg

<svg xmlns="http://www.w3.org/2000/svg" width="16" height="16" version="1">
 <path style="fill:#325f78" d="M 16,13.182 V 2.818 C 16,2.3648 15.618,2 15.143,2 H 1.857 C 1.3822,2 1,2.3648 1,2.818 V 13.182 C 1,13.635 1.3822,14 1.857,14 H 15.143 C 15.618,14 16,13.635 16,13.182 Z"/>
 <path style="opacity:0.2" d="M 15,13 V 3 H 2 V 13 Z"/>
 <path style="fill:#f4f4f7" d="M 6.3333,11 H 7.6666 C 7.8513,11 8,11.149 8,11.333 V 12.666 C 8,12.851 7.8513,13 7.6667,13 H 6.3333 C 6.1487,13 6,12.851 6,12.667 V 11.333 C 6,11.149 6.1487,11 6.3333,11 Z"/>
 <path style="fill:#f4f4f7" d="M 3.3333,11 H 4.6666 C 4.8513,11 5,11.149 5,11.333 V 12.666 C 5,12.851 4.8513,13 4.6667,13 H 3.3333 C 3.1487,13 3,12.851 3,12.667 V 11.333 C 3,11.149 3.1487,11 3.3333,11 Z"/>
 <path style="fill:#f4f4f7" d="M 12.333,11 H 13.666 C 13.851,11 14,11.149 14,11.333 V 12.666 C 14,12.851 13.851,13 13.667,13 H 12.334 C 12.149,13 12,12.851 12,12.667 V 11.334 C 12,11.149 12.149,11 12.333,11 Z"/>
 <path style="fill:#f4f4f7" d="M 9.3333,11 H 10.667 C 10.851,11 11,11.149 11,11.333 V 12.666 C 11,12.851 10.851,13 10.667,13 H 9.3333 C 9.1487,13 9,12.851 9,12.667 V 11.333 C 9,11.149 9.1487,11 9.3333,11 Z"/>
</svg>

<svg xmlns="http://www.w3.org/2000/svg" width="16" height="16" version="1"><path style="fill:#325f78" d="M16 13.182V2.818c0-.453-.382-.818-.857-.818H1.857C1.382 2 1 2.365 1 2.818v10.364c0 .453.382.818.857.818h13.286c.475 0 .857-.365.857-.818z"/><path style="opacity:.2" d="M15 13V3H2v10z"/><path style="fill:#f4f4f7" d="M6.333 11h1.334c.184 0 .333.149.333.333v1.333a.333.333 0 0 1-.333.334H6.333A.333.333 0 0 1 6 12.667v-1.334c0-.184.149-.333.333-.333zM3.333 11h1.334c.184 0 .333.149.333.333v1.333a.333.333 0 0 1-.333.334H3.333A.333.333 0 0 1 3 12.667v-1.334c0-.184.149-.333.333-.333zM12.333 11h1.333c.185 0 .334.149.334.333v1.333a.333.333 0 0 1-.333.334h-1.333a.333.333 0 0 1-.334-.333v-1.333c0-.185.149-.334.333-.334zM9.333 11h1.334c.184 0 .333.149.333.333v1.333a.333.333 0 0 1-.333.334H9.333A.333.333 0 0 1 9 12.667v-1.334c0-.184.149-.333.333-.333z"/></svg>
